static/fa/svgs/solid/arrows-down-to-people.svg

<svg xmlns="http://www.w3.org/2000/svg" viewBox="0 0 640 512"><!--! Font Awesome Free 6.1.1 by @fontawesome - https://fontawesome.com License - https://fontawesome.com/license/free (Icons: CC BY 4.0, Fonts: SIL OFL 1.1, Code: MIT License) Copyright 2022 Fonticons, Inc.--><path d="M167.1 24v118.1L191 119c9.4-9.3 24.6-9.3 33.1 0 10.2 9.4 10.2 24.6 0 33.1l-64 64c-8.5 10.2-23.7 10.2-33.1 0l-63.97-64c-9.38-8.5-9.38-23.7 0-33.1 9.37-9.3 24.57-9.3 33.94 0l22.13 23.1V24c0-13.25 11.6-24 24-24 14.2 0 24 10.75 24 24zm192 176c0 22.1-17 40-40 40-21.2 0-40-17.9-40-40s18.8-40 40-40c23 0 40 17.9 40 40zm-176 96c0 22.1-17 40-40 40-21.2 0-40-17.9-40-40s18.8-40 40-40c23 0 40 17.9 40 40zm272 0c0-22.1 18.8-40 40-40 23 0 40 17.9 40 40s-17 40-40 40c-21.2 0-40-17.9-40-40zm-256 184c0 17.7-13.4 32-32 32h-48c-16.8 0-32-14.3-32-32v-38.5l-25.97 49.9c-6.29 11.6-20.84 16-32.51 9.7-11.67-6.3-16.04-20.8-9.75-32.5l37.87-70.3C72.09 369.8 101.9 352 134.2 352h19.6c16.3 0 31.9 4.5 45.4 12.6l33.5-62.3c15.4-28.5 45.2-47.2 77.5-47.2h19.6c32.3 0 62.1 18.7 77.5 47.2l33.5 62.3c13.5-8.1 29.1-12.6 45.4-12.6h19.6c32.3 0 62.1 17.8 77.5 46.3l37.8 70.3c6.3 11.7 1.9 26.2-9.7 32.5-11.7 6.3-26.3 1.9-32.5-9.7l-27.8-49.9V480c0 17.7-13.4 32-32 32h-48c-16.8 0-32-14.3-32-32v-38.5l-26 49.9c-6.3 11.6-20.8 16-32.5 9.7-11.7-6.3-16-20.8-9.7-32.5l36.3-67.5c-1.7-1.6-3.2-3.5-4.3-5.7l-27.8-49.9V400c0 17.7-13.4 32-32 32h-48c-16.8 0-32-14.3-32-32v-54.5l-26 49.9c-2 2.2-2.6 4.1-4.3 5.7l36.3 67.5c6.3 11.7 1.9 26.2-9.7 32.5-11.7 6.3-26.3 1.9-32.5-9.7l-27.8-49.9V480zM415 152.1c-9.3-8.5-9.3-23.7 0-33.1 9.4-9.3 24.6-9.3 33.1 0l23 23.1V24c0-13.25 11.6-24 24-24 14.2 0 24 10.75 24 24v118.1L543 119c9.4-9.3 24.6-9.3 33.1 0 10.2 9.4 10.2 24.6 0 33.1l-64 64c-8.5 10.2-23.7 10.2-33.1 0l-64-64z"/></svg>

<svg xmlns="http://www.w3.org/2000/svg" viewBox="0 0 640 512"><!--! Font Awesome Free 6.1.1 by @fontawesome - https://fontawesome.com License - https://fontawesome.com/license/free (Icons: CC BY 4.0, Fonts: SIL OFL 1.1, Code: MIT License) Copyright 2022 Fonticons, Inc. --><path d="M167.1 24V142.1L191 119C200.4 109.7 215.6 109.7 224.1 119C234.3 128.4 234.3 143.6 224.1 152.1L160.1 216.1C151.6 226.3 136.4 226.3 127 216.1L63.03 152.1C53.65 143.6 53.65 128.4 63.03 119C72.4 109.7 87.6 109.7 96.97 119L119.1 142.1V24C119.1 10.75 130.7 0 143.1 0C157.3 0 167.1 10.75 167.1 24V24zM359.1 200C359.1 222.1 342.1 240 319.1 240C297.9 240 279.1 222.1 279.1 200C279.1 177.9 297.9 160 319.1 160C342.1 160 359.1 177.9 359.1 200zM183.1 296C183.1 318.1 166.1 336 143.1 336C121.9 336 103.1 318.1 103.1 296C103.1 273.9 121.9 256 143.1 256C166.1 256 183.1 273.9 183.1 296zM455.1 296C455.1 273.9 473.9 256 495.1 256C518.1 256 535.1 273.9 535.1 296C535.1 318.1 518.1 336 495.1 336C473.9 336 455.1 318.1 455.1 296zM199.1 480C199.1 497.7 185.7 512 167.1 512H119.1C102.3 512 87.1 497.7 87.1 480V441.5L61.13 491.4C54.84 503 40.29 507.4 28.62 501.1C16.95 494.8 12.58 480.3 18.87 468.6L56.74 398.3C72.09 369.8 101.9 352 134.2 352H153.8C170.1 352 185.7 356.5 199.2 364.6L232.7 302.3C248.1 273.8 277.9 255.1 310.2 255.1H329.8C362.1 255.1 391.9 273.8 407.3 302.3L440.8 364.6C454.3 356.5 469.9 352 486.2 352H505.8C538.1 352 567.9 369.8 583.3 398.3L621.1 468.6C627.4 480.3 623 494.8 611.4 501.1C599.7 507.4 585.1 503 578.9 491.4L551.1 441.5V480C551.1 497.7 537.7 512 519.1 512H471.1C454.3 512 439.1 497.7 439.1 480V441.5L413.1 491.4C406.8 503 392.3 507.4 380.6 501.1C368.9 494.8 364.6 480.3 370.9 468.6L407.2 401.1C405.5 399.5 404 397.6 402.9 395.4L375.1 345.5V400C375.1 417.7 361.7 432 343.1 432H295.1C278.3 432 263.1 417.7 263.1 400V345.5L237.1 395.4C235.1 397.6 234.5 399.5 232.8 401.1L269.1 468.6C275.4 480.3 271 494.8 259.4 501.1C247.7 507.4 233.1 503 226.9 491.4L199.1 441.5L199.1 480zM415 152.1C405.7 143.6 405.7 128.4 415 119C424.4 109.7 439.6 109.7 448.1 119L471.1 142.1V24C471.1 10.75 482.7 0 495.1 0C509.3 0 519.1 10.75 519.1 24V142.1L543 119C552.4 109.7 567.6 109.7 576.1 119C586.3 128.4 586.3 143.6 576.1 152.1L512.1 216.1C503.6 226.3 488.4 226.3 479 216.1L415 152.1z"/></svg>
